X:1
T:Jesus Is Pleading for Thee
T:Jesus Is Pleading for Thee
T:Barney Elliott Warren
T:Barney Elliott Warren, 1892
T:Public Domain Courtesy of the Cyber Hymnal™
T:Public Domain Courtesy of the Cyber Hymnal™
C:Barney Elliott Warren
Z:Public Domain
Z:Courtesy of the Cyber Hymnal™
%%score ( 1 2 ) ( 3 4 )
L:1/8
Q:1/4=99
M:6/8
K:Eb
V:1 treble 
V:2 treble 
V:3 bass 
V:4 bass 
V:1
 [GB]2 [Ac] [GB]2 [FA] | [EG]2 [DF] E3 | [DF][DF][DF] [DF][CE][DF] | ([EG]3 [GB]2) z | %4
w: 1.~Hear the gen- tle|Spir- it’s call,|Je- sus is plead- ing for|thee; *|
w: 2.~Sin- ner, will you|come to- day?|Je- sus is plead- ing for|thee; *|
w: 3.~Oh! He drank that|bit- ter cup,|Je- sus is plead- ing for|thee; *|
w: 4.~He will wash your|gar- ments white,|Je- sus is plead- ing for|thee; *|
w: 5.~He will sweep your|guilt a- way,|Je- sus is plead- ing for|thee; *|
w: 6.~He will give you|joy and peace,|Je- sus is plead- ing for|thee; *|
 [GB]2 [Ac] [GB]2 [FA] | [EG]2 [DF] E3 | [EG][EG][EG] [DF][DF][DF] | E3- E2 z || %8
w: There is par- don|free for all,|Je- sus is plead- ing for|thee. *|
w: Leave that dark and|drear- y way,|Je- sus is plead- ing for|thee. *|
w: And this world you|must give up,|Je- sus is plead- ing for|thee. *|
w: Turn your dark- ness|in- to light,|Je- sus is plead- ing for|thee. *|
w: Make thy soul as|clear as day,|Je- sus is plead- ing for|thee. *|
w: Glo- ry that will|ne- ver cease,|Je- sus is plead- ing for|thee. *|
"^Refrain" [Ac]3 [EA]2 [Ac] | ([GB]3 [EG]2) z | [DF][DF][DF] [DB]2 [FA] | [EG]3 [GB]2 z | %12
w: ||||
w: ||||
w: Wash in the|blood, *|Wash in the blood of|Je- sus;|
w: ||||
w: ||||
w: ||||
 [Ac]3 [EA]2 [Ac] | ([GB]3 [EG]2) z | [DF][DF][DF] [DB]D[DF] | E3- [B,E]2 z |] %16
w: ||||
w: ||||
w: Wash in the|blood, *|Wash in the blood of the|Lamb. *|
w: ||||
w: ||||
w: ||||
V:2
 x6 | x3 E3 | x6 | x6 | x6 | x3 E3 | x6 | E3- E2 x || x6 | x6 | x6 | x6 | x6 | x6 | x4 D x | %15
 EB,C x3 |] %16
V:3
 [E,E]2 [E,E] [E,E]2 [E,B,] | [E,B,]2 [E,A,] [E,G,]3 | %2
w: ~ ~ ~ ~|~ ~ ~|
 [B,,A,][B,,A,][B,,A,] [B,,A,][B,,A,][B,,A,] | ([E,B,]3 [E,E]2) z | [E,E]2 [E,E] [E,E]2 [E,B,] | %5
w: ~ ~ ~ ~ ~ ~|~ *|~ ~ ~ ~|
 [E,B,]2 [E,A,] [E,G,]3 | [B,,B,][B,,B,][B,,B,] [B,,B,][B,,B,][B,,B,] | [E,G,]3- [E,G,]2 z || %8
w: ~ ~ ~|~ ~ ~ ~ ~ ~|~ *|
 [A,E][A,E][A,E] [A,C][A,C][A,E] | [E,E]2 [E,B,] [E,B,]2 z | %10
w: Wash in the blood of the|cleans- ing tide,|
 [B,,B,][B,,B,][B,,B,] [B,,B,]2 [D,B,] | [E,B,]3 [E,E]2 z | [A,E][A,E][A,E] [A,C][A,C][A,F] | %13
w: ~ ~ ~ ~ ~|~ ~|~ ~ Wash in the blood|
 [E,E]2 [E,B,] [E,B,]2 z | [B,,B,][B,,B,][B,,B,] [B,,A,][B,,A,][B,,A,] | G,G,A, [E,G,]2 z |] %16
w: of the cleans-|ing tide, ~ ~ ~ ~|~ of the Lamb.|
V:4
 x6 | x6 | x6 | x6 | x6 | x6 | x6 | x6 || x6 | x6 | x6 | x6 | x6 | x6 | x6 | E,3 x3 |] %16

